outputs/icons/editor/align_vertical_bottom_sharp.svg

<svg xmlns="http://www.w3.org/2000/svg" width="1200" height="1200" fill="none"><g clip-path="url(#a)"><path fill="#000" d="M1100 1100H100v-100h1000zM500 100H350v800h150zm350 300H700v500h150z"/></g><defs><clipPath id="a"><path fill="#fff" d="M0 0h1200v1200H0z"/></clipPath></defs></svg>

<svg width="1200" height="1200" viewBox="0 0 1200 1200" fill="none" xmlns="http://www.w3.org/2000/svg"><g clip-path="url(#clip0_125_1491)"><path d="M1100 1100H100V1000H1100V1100ZM500 100H350V900H500V100ZM850 400H700V900H850V400Z" fill="black"/></g><defs><clipPath id="clip0_125_1491"><path width="24" fill="white" d="M0 0H1200V1200H0V0z"/></clipPath></defs></svg>
